X:67
T: WENN MIRS DER HERR NICHT FUER UNGUT
N: E1064A
O: Europa, Mitteleuropa, Deutschland, Schwedt a.d. Oder
R: Raetsel - Lied
M: 2/4
L: 1/16
K: G
 | G4G2A2 | B4d2
B2 | A4A2A2 | G4D2
D2 | B3AB2c2 | d4g2
d2 | c4c4 | B4z2
G2 | d3dd2d2 | e4e2
d2 | c3Bc2e2 | d6
c2 | B3GB2d2 | d3cB2
A2 | B4A4 | G4z2
G2 | d3dd2d2 | e4e2
d2 | c3Bc2e2 | d6
c2 | B3GB2d2 | d3cB2
A2 | B4A4 | G4z4

@@@ Tune index: 4751
